X:1
T:Title
%%score ( 1 2 ) { ( 3 5 ) | 4 }
L:1/8
Q:1/4=93
M:3/4
K:A
V:1 treble nm="Grand Piano, Soprano"
V:2 treble 
V:3 bass nm="Choir Pad, Be Not Deceived"
V:5 bass 
V:4 bass 
V:1
 [CA][EA] [EA] [EA]3 | [EB][EA] [DF] [CE]3 | [EA][DG] [CA] [EB]3- | [EB] [Ec]2 [EB]3 | %4
w: By~Daniel~Brink~Towner * * *||||
 [^Ec][Ec] [EB] [FA]3 | [FB][FA] [DF] [CE]3 | [EA][EG] [EA] [FB]3- | [FB] [EG]2 [EA]3 | %8
w: ||||
[M:4/4] z2 z A- A4 | AB[=Gc][Fd]- [Fd]4- | [Fd]2 z [Ec]- [Ec]3 [EB]- | [EB] [FA]2 [Ge]- [Ge]4- | %12
w: ||||
 [Ge] [Ed]2 [Ec]- [Ec]2 [Ec][Ec]/[Ec]/- | [Ec]/[Ec]/ [Ec]2 [Ec]- [Ec] [EB]3- | %14
w: ||
 [EB]2 z [GB]- [GB]2 [GB][GB]/[GB]/- | [GB]/[GB]/ [FB]2 [EB]- [EB] [EA]3 | %16
w: ||
 E[EA][Gd][Ac]- [Ac]3 [GB]- | [GB]3 [Ae]- [Ae]4 | [Ed][Ec][FB][EA]- [EA]3 [EG]- | %19
w: |||
 [EG]3 [EA]- [EA]4- | [EA]4 z4 |] %21
w: ||
V:2
 x6 | x6 | x6 | x6 | x6 | x6 | x6 | x6 |[M:4/4] EF .G2 EEEE | x8 | x8 | x8 | x8 | x8 | x8 | x8 | %16
 x8 | x8 | x8 | x8 | x8 |] %21
V:3
 E,A, C C3 | DC A, A,3 | A,E, A, G,3- | G, A,2 G,3 | G,A, B,[K:treble] C3 | DD A, A,3 | %6
 CB, A, D3- | D D2 C3 |[M:4/4] z2 z[K:bass] C- C4 | z4 A,A,A,A,- | A,2 z A,- A,2- A,/ z/ B,- | %11
 B,[K:treble]C^DE- E4- | E[K:bass] B,2 A,- A,3/2 z/ A,A,/A,/- | A,/A,/ A,2 A,- A, G,3- | %14
 G,2 z[K:treble] D- D2 DD/D/- | D/D/ D2 D- D C3 | CEEE- E3 E- | E3[K:bass] A,- A,4 | %18
 G,A, A,/B,/[K:treble]C- C3 D- | D3 C- C4- | C4 z4 |] %21
V:4
 A,,C, E, A,3 | A,A, z2 z2 | C,B,, A,, E,3- | E, z z E,3 | C,C, C, F,3 | D,D, D, A,,3 | %6
 A,,B,, C, D,3- | D, E,2 A,,3 |[M:4/4] z8 | z4 D,D,D,D,- | D,2 z2 z2 z G,- | G, F,2 E,- E,4- | %12
 E, .G,3 z4 | z2 z E,- E, E,3- | E,2 z E,- E,2 E,E,/E,/- | E,/E,/ E,2 A,,- A,, A,,3 | %16
 A,,C,E,A,- A,3 E,- | E, D,2 C,- C,4 | B,,C,D,E,- E,3 E,- | E,3 A,,- A,,4- | A,,4 z4 |] %21
V:5
 x6 | x6 | x6 | x6 | x3[K:treble] x3 | x6 | x6 | x6 |[M:4/4] E^D .=D2[K:bass] A,A,A,A, | x8 | x8 | %11
 x[K:treble] x7 | x[K:bass] x7 | x8 | x3[K:treble] x5 | x8 | x8 | x3[K:bass] x5 | x3[K:treble] x5 | %19
 x8 | x8 |] %21

